bicons/16x16/emblems/entity-function.svg

<?xml version="1.0" encoding="UTF-8" standalone="no"?>
<!-- Created with Inkscape (http://www.inkscape.org/) -->

<svg
   xmlns:dc="http://purl.org/dc/elements/1.1/"
   xmlns:cc="http://creativecommons.org/ns#"
   xmlns:rdf="http://www.w3.org/1999/02/22-rdf-syntax-ns#"
   xmlns:svg="http://www.w3.org/2000/svg"
   xmlns="http://www.w3.org/2000/svg"
   xmlns:xlink="http://www.w3.org/1999/xlink"
   xmlns:sodipodi="http://sodipodi.sourceforge.net/DTD/sodipodi-0.dtd"
   xmlns:inkscape="http://www.inkscape.org/namespaces/inkscape"
   width="210mm"
   height="297mm"
   viewBox="0 0 744.09448819 1052.3622047"
   id="svg2"
   version="1.1"
   inkscape:version="0.91 r13725"
   inkscape:export-xdpi="3.5999999"
   inkscape:export-ydpi="3.5999999"
   sodipodi:docname="entity-function.svg"
   inkscape:export-filename="D:\Dokumente\Arbeit\RRZE\github\bicons\16x16\emblems\entity-function.png">
  <defs
     id="defs4">
    <linearGradient
       id="linearGradient2224">
      <stop
         id="stop2226"
         offset="0"
         style="stop-color:#7c7c7c;stop-opacity:1;" />
      <stop
         id="stop2228"
         offset="1"
         style="stop-color:#b8b8b8;stop-opacity:1;" />
    </linearGradient>
    <linearGradient
       id="linearGradient15218">
      <stop
         id="stop15220"
         offset="0"
         style="stop-color:#eeeeef;stop-opacity:1;" />
      <stop
         id="stop2736"
         offset="0.59928656"
         style="stop-color:#d3d7cf;stop-opacity:1;" />
      <stop
         id="stop2738"
         offset="0.82758623"
         style="stop-color:#ffffff;stop-opacity:1;" />
      <stop
         id="stop15222"
         offset="1"
         style="stop-color:#d3d7cf;stop-opacity:1;" />
    </linearGradient>
    <pattern
       y="0"
       x="0"
       height="6"
       width="6"
       patternUnits="userSpaceOnUse"
       id="EMFhbasepattern" />
    <pattern
       y="0"
       x="0"
       height="6"
       width="6"
       patternUnits="userSpaceOnUse"
       id="EMFhbasepattern-5" />
    <pattern
       y="0"
       x="0"
       height="6"
       width="6"
       patternUnits="userSpaceOnUse"
       id="EMFhbasepattern-57" />
    <linearGradient
       inkscape:collect="always"
       xlink:href="#linearGradient4225"
       id="linearGradient4231"
       x1="8.485281"
       y1="402.82843"
       x2="375"
       y2="25"
       gradientUnits="userSpaceOnUse"
       gradientTransform="translate(189.30072,322.28368)" />
    <linearGradient
       inkscape:collect="always"
       id="linearGradient4225">
      <stop
         style="stop-color:#4e505d;stop-opacity:1;"
         offset="0"
         id="stop4227" />
      <stop
         style="stop-color:#7a859c;stop-opacity:1"
         offset="1"
         id="stop4229" />
    </linearGradient>
  </defs>
  <sodipodi:namedview
     id="base"
     pagecolor="#ffffff"
     bordercolor="#666666"
     borderopacity="1.0"
     inkscape:pageopacity="0.0"
     inkscape:pageshadow="2"
     inkscape:zoom="0.70710678"
     inkscape:cx="536.2872"
     inkscape:cy="376.25973"
     inkscape:document-units="px"
     inkscape:current-layer="layer1"
     showgrid="false"
     showguides="true"
     inkscape:guide-bbox="true"
     inkscape:window-width="1600"
     inkscape:window-height="837"
     inkscape:window-x="-4"
     inkscape:window-y="-4"
     inkscape:window-maximized="1"
     inkscape:snap-bbox="true"
     inkscape:bbox-paths="true"
     inkscape:bbox-nodes="true">
    <sodipodi:guide
       position="560,730.00002"
       orientation="0,1"
       id="guide3338" />
    <sodipodi:guide
       position="560,330.00001"
       orientation="0,1"
       id="guide3340" />
    <sodipodi:guide
       position="190,475.00001"
       orientation="1,0"
       id="guide3344" />
    <sodipodi:guide
       position="590,451.00001"
       orientation="1,0"
       id="guide3346" />
    <inkscape:grid
       type="xygrid"
       id="grid3440" />
  </sodipodi:namedview>
  <metadata
     id="metadata7">
    <rdf:RDF>
      <cc:Work
         rdf:about="">
        <dc:format>image/svg+xml</dc:format>
        <dc:type
           rdf:resource="http://purl.org/dc/dcmitype/StillImage" />
        <dc:title>entity function</dc:title>
        <dc:date>June 2015</dc:date>
        <dc:creator>
          <cc:Agent>
            <dc:title>Johannes Hechler</dc:title>
          </cc:Agent>
        </dc:creator>
        <dc:rights>
          <cc:Agent>
            <dc:title>Johannes Hechler</dc:title>
          </cc:Agent>
        </dc:rights>
        <dc:publisher>
          <cc:Agent>
            <dc:title>RRZE</dc:title>
          </cc:Agent>
        </dc:publisher>
        <dc:contributor>
          <cc:Agent>
            <dc:title>Ute Weber, Hendrik Eggers</dc:title>
          </cc:Agent>
        </dc:contributor>
      </cc:Work>
    </rdf:RDF>
  </metadata>
  <g
     inkscape:label="Ebene 1"
     inkscape:groupmode="layer"
     id="layer1">
    <g
       id="g4164">
      <g
         id="g4167">
        <path
           style="color:#000000;clip-rule:nonzero;display:inline;overflow:visible;visibility:visible;opacity:1;isolation:auto;mix-blend-mode:normal;color-interpolation:sRGB;color-interpolation-filters:linearRGB;solid-color:#000000;solid-opacity:1;fill:#4e505d;fill-opacity:1;fill-rule:evenodd;stroke:none;stroke-width:36;stroke-linecap:butt;stroke-linejoin:miter;stroke-miterlimit:4;stroke-dasharray:none;stroke-dashoffset:0;stroke-opacity:1;color-rendering:auto;image-rendering:auto;shape-rendering:auto;text-rendering:auto;enable-background:accumulate"
           d="m 315,372.36218 0,25 150,0 0,-25 -150,0 z m -75,75 0,150 25,0 0,-150 -25,0 z m 275,0 0,51.62305 a 25.0025,25.0025 0 0 1 17.10352,17.84765 l 0.60351,2.40625 1.14453,-0.71679 A 25.0025,25.0025 0 0 1 540,515.77624 l 0,-68.41406 -25,0 z m 20.45117,128.96484 A 25.0025,25.0025 0 0 1 515,576.84656 l 0,20.51562 21.06445,0 a 25.0025,25.0025 0 0 1 -0.61328,-21.03516 z M 315,647.36218 l 0,25 72.56055,0 a 25.0025,25.0025 0 0 1 0.66015,-1.29688 l 2.83008,-4.92773 -6.31055,-1.57031 a 25.0025,25.0025 0 0 1 -17.93554,-17.20508 l -51.80469,0 z m 130.35938,0 c 0.0194,0.0349 0.0372,0.0706 0.0566,0.10547 A 25.0025,25.0025 0 0 1 446.85152,668.7489 25.0025,25.0025 0 0 1 465,667.58679 l 0,-20.22461 -19.64062,0 z"
           id="rect4195"
           inkscape:connector-curvature="0" />
        <rect
           style="opacity:1;fill:none;fill-opacity:1;stroke:none;stroke-width:23;stroke-linecap:butt;stroke-linejoin:round;stroke-miterlimit:4;stroke-dasharray:none;stroke-opacity:1"
           id="rect4160"
           width="400"
           height="400"
           x="190"
           y="322.36221" />
        <path
           style="color:#000000;clip-rule:nonzero;display:inline;overflow:visible;visibility:visible;opacity:1;isolation:auto;mix-blend-mode:normal;color-interpolation:sRGB;color-interpolation-filters:linearRGB;solid-color:#000000;solid-opacity:1;fill:url(#linearGradient4231);fill-opacity:1;fill-rule:evenodd;stroke:none;stroke-width:36;stroke-linecap:butt;stroke-linejoin:miter;stroke-miterlimit:4;stroke-dasharray:none;stroke-dashoffset:0;stroke-opacity:1;color-rendering:auto;image-rendering:auto;shape-rendering:auto;text-rendering:auto;enable-background:accumulate"
           d="m 251.80072,347.28368 c -20.71068,0 -37.5,16.78932 -37.5,37.5 0,20.71068 16.78932,37.5 37.5,37.5 20.71068,0 37.5,-16.78932 37.5,-37.5 0,-20.71068 -16.78932,-37.5 -37.5,-37.5 z m 275,0 c -20.71068,0 -37.5,16.78932 -37.5,37.5 0,20.71068 16.78932,37.5 37.5,37.5 20.71068,0 37.5,-16.78932 37.5,-37.5 0,-20.71068 -16.78932,-37.5 -37.5,-37.5 z m -275,275.00002 c -20.71068,0 -37.5,16.78932 -37.5,37.5 -1e-5,20.71072 16.78931,37.50002 37.5,37.50002 20.71069,0 37.50001,-16.7893 37.5,-37.50002 0,-20.71068 -16.78932,-37.5 -37.5,-37.5 z"
           id="path4187"
           inkscape:connector-curvature="0"
           sodipodi:nodetypes="sssssssssssssss" />
      </g>
      <path
         inkscape:connector-curvature="0"
         style="opacity:1;fill:#99b000;fill-opacity:1;stroke:none;stroke-width:20.62700081;stroke-linecap:square;stroke-linejoin:miter;stroke-miterlimit:4;stroke-dasharray:none;stroke-opacity:1"
         d="m 473.88086,522.96773 -4.71484,30.77734 c -4.4835,1.43314 -8.82453,3.27471 -12.9707,5.5 l -25.83985,-17.60352 -23.52343,24.47266 18.68945,25.29883 c -1.70337,3.45336 -3.1449,7.03022 -4.31055,10.69922 l -30.43359,4.58593 0,33.91211 31.18945,4.77539 0,-0.043 c 1.49048,4.3838 3.37455,8.62316 5.63086,12.66796 l -17.69336,25.89845 24.52734,23.4629 25.72071,-18.8887 -0.72071,-0.6933 c 3.31847,1.6234 6.74988,3.0056 10.26758,4.1367 l 4.62696,30.4355 33.98046,0 4.75586,-30.957 c 4.25691,-1.411 8.38211,-3.1919 12.32813,-5.3203 l 26.00391,17.6972 23.52148,-24.4804 -18.85938,-25.57425 c 1.49336,-3.083 2.7779,-6.26142 3.84571,-9.51562 L 590,639.70206 l 0,-33.9043 -30.12304,-4.50976 c -1.42499,-4.45734 -3.25562,-8.77567 -5.46875,-12.90039 l 17.24609,-25.12696 -24.52734,-23.46093 -24.50196,18.125 c -3.2492,-1.61108 -6.60835,-2.99096 -10.05273,-4.12891 l -4.71289,-30.82812 -33.97852,0 z m 16.84766,68.55273 c 13.80712,0 31,17.19288 31,31 0,13.80712 -17.19288,31 -31,31 -13.80712,0 -31,-17.19288 -31,-31 0,-13.80712 17.19288,-31 31,-31 z"
         id="path4172-4-7" />
    </g>
  </g>
</svg>

<?xml version="1.0" encoding="UTF-8" standalone="no"?>
<!-- Created with Inkscape (http://www.inkscape.org/) -->

<svg
   xmlns:dc="http://purl.org/dc/elements/1.1/"
   xmlns:cc="http://creativecommons.org/ns#"
   xmlns:rdf="http://www.w3.org/1999/02/22-rdf-syntax-ns#"
   xmlns:svg="http://www.w3.org/2000/svg"
   xmlns="http://www.w3.org/2000/svg"
   xmlns:xlink="http://www.w3.org/1999/xlink"
   xmlns:sodipodi="http://sodipodi.sourceforge.net/DTD/sodipodi-0.dtd"
   xmlns:inkscape="http://www.inkscape.org/namespaces/inkscape"
   width="210mm"
   height="297mm"
   viewBox="0 0 744.09448819 1052.3622047"
   id="svg2"
   version="1.1"
   inkscape:version="0.91 r13725"
   inkscape:export-xdpi="3.5999999"
   inkscape:export-ydpi="3.5999999"
   sodipodi:docname="entity-function.svg"
   inkscape:export-filename="D:\Dokumente\Arbeit\RRZE\github\bicons\16x16\emblems\entity-function.png">
  <defs
     id="defs4">
    <linearGradient
       id="linearGradient2224">
      <stop
         id="stop2226"
         offset="0"
         style="stop-color:#7c7c7c;stop-opacity:1;" />
      <stop
         id="stop2228"
         offset="1"
         style="stop-color:#b8b8b8;stop-opacity:1;" />
    </linearGradient>
    <linearGradient
       id="linearGradient15218">
      <stop
         id="stop15220"
         offset="0"
         style="stop-color:#eeeeef;stop-opacity:1;" />
      <stop
         id="stop2736"
         offset="0.59928656"
         style="stop-color:#d3d7cf;stop-opacity:1;" />
      <stop
         id="stop2738"
         offset="0.82758623"
         style="stop-color:#ffffff;stop-opacity:1;" />
      <stop
         id="stop15222"
         offset="1"
         style="stop-color:#d3d7cf;stop-opacity:1;" />
    </linearGradient>
    <pattern
       y="0"
       x="0"
       height="6"
       width="6"
       patternUnits="userSpaceOnUse"
       id="EMFhbasepattern" />
    <pattern
       y="0"
       x="0"
       height="6"
       width="6"
       patternUnits="userSpaceOnUse"
       id="EMFhbasepattern-5" />
    <pattern
       y="0"
       x="0"
       height="6"
       width="6"
       patternUnits="userSpaceOnUse"
       id="EMFhbasepattern-57" />
    <linearGradient
       inkscape:collect="always"
       xlink:href="#linearGradient4225"
       id="linearGradient4231"
       x1="8.485281"
       y1="402.82843"
       x2="375"
       y2="25"
       gradientUnits="userSpaceOnUse"
       gradientTransform="translate(189.30072,322.28368)" />
    <linearGradient
       inkscape:collect="always"
       id="linearGradient4225">
      <stop
         style="stop-color:#4e505d;stop-opacity:1;"
         offset="0"
         id="stop4227" />
      <stop
         style="stop-color:#7a859c;stop-opacity:1"
         offset="1"
         id="stop4229" />
    </linearGradient>
  </defs>
  <sodipodi:namedview
     id="base"
     pagecolor="#ffffff"
     bordercolor="#666666"
     borderopacity="1.0"
     inkscape:pageopacity="0.0"
     inkscape:pageshadow="2"
     inkscape:zoom="0.70710678"
     inkscape:cx="32.120061"
     inkscape:cy="335.24754"
     inkscape:document-units="px"
     inkscape:current-layer="layer1"
     showgrid="false"
     showguides="true"
     inkscape:guide-bbox="true"
     inkscape:window-width="1600"
     inkscape:window-height="837"
     inkscape:window-x="-4"
     inkscape:window-y="-4"
     inkscape:window-maximized="1"
     inkscape:snap-bbox="true"
     inkscape:bbox-paths="true"
     inkscape:bbox-nodes="true">
    <sodipodi:guide
       position="560,730.00002"
       orientation="0,1"
       id="guide3338" />
    <sodipodi:guide
       position="560,330.00001"
       orientation="0,1"
       id="guide3340" />
    <sodipodi:guide
       position="190,475.00001"
       orientation="1,0"
       id="guide3344" />
    <sodipodi:guide
       position="590,451.00001"
       orientation="1,0"
       id="guide3346" />
    <inkscape:grid
       type="xygrid"
       id="grid3440" />
  </sodipodi:namedview>
  <metadata
     id="metadata7">
    <rdf:RDF>
      <cc:Work
         rdf:about="">
        <dc:format>image/svg+xml</dc:format>
        <dc:type
           rdf:resource="http://purl.org/dc/dcmitype/StillImage" />
        <dc:title>entity function</dc:title>
        <dc:date>June 2015</dc:date>
        <dc:creator>
          <cc:Agent>
            <dc:title>Johannes Hechler</dc:title>
          </cc:Agent>
        </dc:creator>
        <dc:rights>
          <cc:Agent>
            <dc:title>Johannes Hechler</dc:title>
          </cc:Agent>
        </dc:rights>
        <dc:publisher>
          <cc:Agent>
            <dc:title>RRZE</dc:title>
          </cc:Agent>
        </dc:publisher>
        <dc:contributor>
          <cc:Agent>
            <dc:title>Ute Weber, Hendrik Eggers</dc:title>
          </cc:Agent>
        </dc:contributor>
      </cc:Work>
    </rdf:RDF>
  </metadata>
  <g
     inkscape:label="Ebene 1"
     inkscape:groupmode="layer"
     id="layer1">
    <g
       id="g4167">
      <path
         inkscape:connector-curvature="0"
         id="rect4195"
         d="m 315,372.36218 0,25 150,0 0,-25 -150,0 z m -75,75 0,150 25,0 0,-150 -25,0 z m 275,0 0,51.62305 a 25.0025,25.0025 0 0 1 17.10352,17.84765 l 0.60351,2.40625 1.14453,-0.71679 A 25.0025,25.0025 0 0 1 540,515.77624 l 0,-68.41406 -25,0 z m 20.45117,128.96484 A 25.0025,25.0025 0 0 1 515,576.84656 l 0,20.51562 21.06445,0 a 25.0025,25.0025 0 0 1 -0.61328,-21.03516 z M 315,647.36218 l 0,25 72.56055,0 a 25.0025,25.0025 0 0 1 0.66015,-1.29688 l 2.83008,-4.92773 -6.31055,-1.57031 a 25.0025,25.0025 0 0 1 -17.93554,-17.20508 l -51.80469,0 z m 130.35938,0 c 0.0194,0.0349 0.0372,0.0706 0.0566,0.10547 A 25.0025,25.0025 0 0 1 446.85152,668.7489 25.0025,25.0025 0 0 1 465,667.58679 l 0,-20.22461 -19.64062,0 z"
         style="color:#000000;clip-rule:nonzero;display:inline;overflow:visible;visibility:visible;opacity:1;isolation:auto;mix-blend-mode:normal;color-interpolation:sRGB;color-interpolation-filters:linearRGB;solid-color:#000000;solid-opacity:1;fill:#4e505d;fill-opacity:1;fill-rule:evenodd;stroke:none;stroke-width:36;stroke-linecap:butt;stroke-linejoin:miter;stroke-miterlimit:4;stroke-dasharray:none;stroke-dashoffset:0;stroke-opacity:1;color-rendering:auto;image-rendering:auto;shape-rendering:auto;text-rendering:auto;enable-background:accumulate" />
      <rect
         y="322.36221"
         x="190"
         height="400"
         width="400"
         id="rect4160"
         style="opacity:1;fill:none;fill-opacity:1;stroke:none;stroke-width:23;stroke-linecap:butt;stroke-linejoin:round;stroke-miterlimit:4;stroke-dasharray:none;stroke-opacity:1" />
      <path
         sodipodi:nodetypes="sssssssssssssss"
         inkscape:connector-curvature="0"
         id="path4187"
         d="m 251.80072,347.28368 c -20.71068,0 -37.5,16.78932 -37.5,37.5 0,20.71068 16.78932,37.5 37.5,37.5 20.71068,0 37.5,-16.78932 37.5,-37.5 0,-20.71068 -16.78932,-37.5 -37.5,-37.5 z m 275,0 c -20.71068,0 -37.5,16.78932 -37.5,37.5 0,20.71068 16.78932,37.5 37.5,37.5 20.71068,0 37.5,-16.78932 37.5,-37.5 0,-20.71068 -16.78932,-37.5 -37.5,-37.5 z m -275,275.00002 c -20.71068,0 -37.5,16.78932 -37.5,37.5 -1e-5,20.71072 16.78931,37.50002 37.5,37.50002 20.71069,0 37.50001,-16.7893 37.5,-37.50002 0,-20.71068 -16.78932,-37.5 -37.5,-37.5 z"
         style="color:#000000;clip-rule:nonzero;display:inline;overflow:visible;visibility:visible;opacity:1;isolation:auto;mix-blend-mode:normal;color-interpolation:sRGB;color-interpolation-filters:linearRGB;solid-color:#000000;solid-opacity:1;fill:url(#linearGradient4231);fill-opacity:1;fill-rule:evenodd;stroke:none;stroke-width:36;stroke-linecap:butt;stroke-linejoin:miter;stroke-miterlimit:4;stroke-dasharray:none;stroke-dashoffset:0;stroke-opacity:1;color-rendering:auto;image-rendering:auto;shape-rendering:auto;text-rendering:auto;enable-background:accumulate" />
      <path
         id="path4172-4"
         d="M 473.88086 522.96875 L 469.16602 553.74609 C 464.68252 555.17922 460.34148 557.01884 456.19531 559.24414 L 430.35547 541.64258 L 406.83203 566.11523 L 425.52148 591.41406 C 423.8181 594.86742 422.37659 598.44428 421.21094 602.11328 L 390.77734 606.69922 L 390.77734 640.61133 L 421.9668 645.38672 L 421.9668 645.34375 C 423.45728 649.72749 425.34135 653.96689 427.59766 658.01172 L 409.90625 683.91016 L 434.43164 707.37109 L 460.15234 688.48438 L 459.43164 687.79102 C 462.75011 689.41442 466.18152 690.79653 469.69922 691.92773 L 474.32617 722.36133 L 508.30664 722.36133 L 513.0625 691.40625 C 517.31941 689.99515 521.44461 688.21434 525.39062 686.08594 L 551.39453 703.7832 L 574.91602 679.30273 L 556.05664 653.72852 C 557.54999 650.64549 558.83453 647.46713 559.90234 644.21289 L 590 639.70312 L 590 605.79883 L 559.87695 601.28906 C 558.45196 596.83172 556.62133 592.51339 554.4082 588.38867 L 571.6543 563.26172 L 547.12695 539.80078 L 522.625 557.92578 C 519.3758 556.3147 516.01665 554.93482 512.57227 553.79688 L 507.85938 522.96875 L 473.88086 522.96875 z M 491.82812 598.42188 A 25.158535 24.780451 0 0 1 516.99219 623.19336 L 491.83398 623.20117 L 516.99219 623.20117 A 25.158535 24.780451 0 0 1 491.83594 647.98242 A 25.158535 24.780451 0 0 1 466.67578 623.20508 A 25.158535 24.780451 0 0 1 491.82812 598.42188 z "
         style="opacity:1;fill:#99b000;fill-opacity:1;stroke:none;stroke-width:20.62700081;stroke-linecap:square;stroke-linejoin:miter;stroke-miterlimit:4;stroke-dasharray:none;stroke-opacity:1" />
    </g>
  </g>
</svg>
